public/illustrations/i-green-scale-ai-bg.svg

<svg width="343" height="179" viewBox="0 0 343 179" fill="none" xmlns="http://www.w3.org/2000/svg">
<g clip-path="url(#clip0_1229_45)">
<rect width="342.61" height="178.45" fill="white"/>
<path d="M342.61 0H0V196.45H342.61V0Z" fill="url(#paint0_linear_1229_45)"/>
<mask id="mask0_1229_45" style="mask-type:luminance" maskUnits="userSpaceOnUse" x="0" y="0" width="343" height="197">
<path d="M35.68 0H306.93C316.393 0 325.468 3.75913 332.16 10.4504C338.851 17.1417 342.61 26.2171 342.61 35.68V195.93C342.61 196.068 342.555 196.2 342.458 196.298C342.36 196.395 342.228 196.45 342.09 196.45H0.52C0.451713 196.45 0.384094 196.437 0.321005 196.41C0.257915 196.384 0.200591 196.346 0.152304 196.298C0.104018 196.249 0.0657151 196.192 0.0395826 196.129C0.0134502 196.066 0 195.998 0 195.93L0 35.68C0 26.2171 3.75913 17.1417 10.4504 10.4504C17.1417 3.75913 26.2171 0 35.68 0Z" fill="white"/>
</mask>
<g mask="url(#mask0_1229_45)">
<path d="M179.85 180.23C179.865 185.748 178.695 191.204 176.42 196.23H-0.390137V38.5703C4.85288 37.0198 10.2924 36.235 15.7599 36.2403C47.8499 36.2403 73.8599 62.9303 73.8599 95.8703C73.8599 96.8703 73.8599 97.7903 73.7899 98.7503C76.7057 98.183 79.6694 97.8984 82.6399 97.9003C108.18 97.9003 129.04 118.41 130.46 144.25C134.393 142.838 138.541 142.117 142.72 142.12C163.23 142.12 179.85 159.18 179.85 180.23Z" fill="url(#paint1_linear_1229_45)"/>
<path d="M342.69 58.0003V195.83H175.22C168.264 188.548 164.406 178.851 164.46 168.78C164.46 147.78 180.74 130.67 200.82 130.67C205.718 130.657 210.564 131.68 215.04 133.67C216.29 107.67 236.79 87.0103 261.9 87.0103C269.036 87.024 276.066 88.7344 282.41 92.0003C291.41 71.5703 311.18 57.4003 334.08 57.4003C336.961 57.3768 339.84 57.5774 342.69 58.0003Z" fill="url(#paint2_linear_1229_45)"/>
<path d="M133.47 185C133.476 188.997 132.606 192.947 130.92 196.57H-0.390137V82.5204C6.0392 80.6671 12.8113 80.3333 19.3917 81.5454C25.9721 82.7575 32.1808 85.4822 37.5279 89.5046C42.875 93.5271 47.2141 98.7371 50.2028 104.724C53.1916 110.71 54.7482 117.309 54.7499 124C54.7499 124.7 54.7499 125.39 54.7499 126.08C59.7153 125.157 64.8206 125.3 69.7263 126.502C74.632 127.703 79.2258 129.935 83.2024 133.049C87.179 136.163 90.4472 140.087 92.7899 144.562C95.1327 149.036 96.4962 153.958 96.7899 159C100.944 157.551 105.385 157.116 109.742 157.732C114.099 158.348 118.245 159.997 121.835 162.541C125.425 165.086 128.354 168.452 130.378 172.359C132.402 176.266 133.462 180.6 133.47 185Z" fill="url(#paint3_linear_1229_45)"/>
<path d="M342.69 96.8901V196.59H215.69C211.12 192.08 208.267 186.117 207.623 179.728C206.978 173.34 208.583 166.927 212.16 161.595C215.737 156.263 221.063 152.346 227.218 150.52C233.374 148.694 239.973 149.072 245.88 151.59C246.185 145.72 247.94 140.017 250.987 134.991C254.034 129.964 258.278 125.77 263.341 122.784C268.404 119.798 274.128 118.113 280.002 117.878C285.875 117.643 291.715 118.867 297 121.44C300.463 113.97 305.991 107.647 312.932 103.217C319.873 98.7873 327.936 96.4358 336.17 96.4401C338.351 96.428 340.531 96.5784 342.69 96.8901Z" fill="url(#paint4_linear_1229_45)"/>
<path d="M226.79 64.3901C211.926 49.5292 191.768 41.1807 170.75 41.1807C149.731 41.1807 129.574 49.5292 114.71 64.3901C111.258 67.8444 108.128 71.6067 105.36 75.6301C104.58 75.2114 103.671 75.1046 102.815 75.3312C101.96 75.5577 101.222 76.1009 100.752 76.8506C100.282 77.6003 100.114 78.5007 100.283 79.3695C100.451 80.2383 100.944 81.0106 101.66 81.5301C93.1965 96.5994 89.8872 114.021 92.2357 131.144C94.5841 148.267 102.462 164.154 114.67 176.388C126.878 188.622 142.748 196.534 159.866 198.919C176.984 201.304 194.413 198.031 209.5 189.6C210.039 190.365 210.85 190.894 211.767 191.08C212.684 191.265 213.637 191.093 214.43 190.597C215.224 190.102 215.798 189.322 216.034 188.416C216.27 187.511 216.15 186.55 215.7 185.73C219.667 182.983 223.379 179.884 226.79 176.47C234.152 169.112 239.992 160.376 243.976 150.761C247.961 141.145 250.012 130.839 250.012 120.43C250.012 110.022 247.961 99.7152 243.976 90.0997C239.992 80.4841 234.152 71.7479 226.79 64.3901ZM215.28 185.11C214.797 184.532 214.148 184.116 213.421 183.921C212.693 183.725 211.923 183.759 211.216 184.017C210.508 184.275 209.897 184.745 209.467 185.363C209.036 185.981 208.807 186.717 208.81 187.47C208.807 187.981 208.916 188.486 209.13 188.95C194.192 197.318 176.927 200.574 159.967 198.221C143.007 195.869 127.281 188.037 115.184 175.919C103.088 163.801 95.2838 148.06 92.9614 131.096C90.6389 114.132 93.9253 96.8735 102.32 81.9501C102.762 82.1402 103.239 82.2388 103.72 82.2401C104.448 82.2607 105.165 82.0522 105.768 81.6439C106.372 81.2356 106.832 80.6481 107.084 79.9643C107.336 79.2805 107.367 78.5349 107.172 77.8326C106.978 77.1304 106.568 76.5069 106 76.0501C112.51 66.5287 121.038 58.5582 130.977 52.7053C140.916 46.8524 152.022 43.2608 163.506 42.1858C174.99 41.1108 186.57 42.5787 197.423 46.4853C208.276 50.3919 218.134 56.6412 226.299 64.789C234.463 72.9367 240.732 82.7829 244.66 93.6277C248.589 104.472 250.08 116.049 249.028 127.536C247.976 139.022 244.407 150.135 238.574 160.086C232.741 170.037 224.788 178.581 215.28 185.11Z" fill="url(#paint5_radial_1229_45)"/>
<path d="M87.8399 49.5499C89.1875 49.5499 90.2799 48.4575 90.2799 47.1099C90.2799 45.7623 89.1875 44.6699 87.8399 44.6699C86.4923 44.6699 85.3999 45.7623 85.3999 47.1099C85.3999 48.4575 86.4923 49.5499 87.8399 49.5499Z" fill="url(#paint6_radial_1229_45)"/>
<path d="M62.0001 97.7404C63.0605 97.7404 63.9201 96.8808 63.9201 95.8204C63.9201 94.76 63.0605 93.9004 62.0001 93.9004C60.9397 93.9004 60.0801 94.76 60.0801 95.8204C60.0801 96.8808 60.9397 97.7404 62.0001 97.7404Z" fill="url(#paint7_radial_1229_45)"/>
<path d="M98.3096 172.28C99.37 172.28 100.23 171.421 100.23 170.36C100.23 169.3 99.37 168.44 98.3096 168.44C97.2493 168.44 96.3896 169.3 96.3896 170.36C96.3896 171.421 97.2493 172.28 98.3096 172.28Z" fill="url(#paint8_radial_1229_45)"/>
<path d="M169.88 213.82C169.325 213.821 168.79 214.025 168.376 214.394C167.961 214.762 167.696 215.269 167.63 215.82C142.401 215.136 118.411 204.738 100.661 186.797C82.9117 168.855 72.7731 144.755 72.3598 119.52C72.9273 119.423 73.4421 119.128 73.8132 118.688C74.1844 118.248 74.388 117.691 74.388 117.115C74.388 116.539 74.1844 115.982 73.8132 115.542C73.4421 115.102 72.9273 114.807 72.3598 114.71C72.9744 96.4552 78.6878 78.737 88.853 63.5617C99.0183 48.3864 113.229 36.3603 129.877 28.8452C146.524 21.33 164.944 18.626 183.049 21.0393C201.154 23.4526 218.222 30.8868 232.32 42.5001C232.123 42.8405 232.019 43.2269 232.02 43.6201C232.017 44.1438 232.195 44.6524 232.523 45.0605C232.851 45.4686 233.31 45.7512 233.822 45.8609C234.334 45.9706 234.868 45.9007 235.335 45.6629C235.802 45.4251 236.172 45.0339 236.384 44.5552C236.596 44.0764 236.637 43.5391 236.5 43.0338C236.363 42.5284 236.056 42.0857 235.63 41.7801C235.205 41.4744 234.688 41.3245 234.165 41.3555C233.642 41.3864 233.146 41.5964 232.76 41.9501C218.56 30.2666 201.374 22.7903 183.146 20.3671C164.918 17.9438 146.375 20.6704 129.617 28.2382C112.858 35.8061 98.5511 47.9131 88.3157 63.1897C78.0803 78.4662 72.3246 96.3023 71.6998 114.68C71.0934 114.735 70.5294 115.015 70.1188 115.465C69.7081 115.914 69.4805 116.501 69.4805 117.11C69.4805 117.719 69.7081 118.306 70.1188 118.756C70.5294 119.205 71.0934 119.485 71.6998 119.54C72.0815 144.975 82.2877 169.277 100.182 187.357C118.076 205.437 142.27 215.895 167.7 216.54C167.781 216.963 167.981 217.354 168.277 217.667C168.572 217.98 168.95 218.203 169.367 218.31C169.784 218.416 170.223 218.402 170.633 218.268C171.042 218.135 171.405 217.888 171.679 217.556C171.953 217.224 172.127 216.821 172.181 216.394C172.235 215.966 172.166 215.533 171.982 215.143C171.799 214.754 171.509 214.424 171.145 214.194C170.782 213.963 170.36 213.84 169.93 213.84L169.88 213.82Z" fill="url(#paint9_radial_1229_45)"/>
<path d="M265.72 115.54C265.717 114.568 265.329 113.637 264.641 112.951C263.953 112.265 263.021 111.88 262.05 111.88H261.82C259.989 91.6986 251.287 72.757 237.17 58.2199C229.553 50.2715 220.443 43.9033 210.362 39.4796C200.281 35.056 189.426 32.6637 178.42 32.4399C178.385 32.1052 178.254 31.7878 178.042 31.5261C177.831 31.2644 177.548 31.0696 177.228 30.9654C176.908 30.8612 176.565 30.852 176.24 30.9389C175.914 31.0258 175.622 31.2052 175.396 31.4551C175.171 31.7051 175.023 32.0151 174.97 32.3474C174.918 32.6797 174.963 33.0202 175.099 33.3276C175.236 33.635 175.459 33.8961 175.742 34.0794C176.024 34.2626 176.353 34.36 176.69 34.3599C177.059 34.3608 177.419 34.2426 177.717 34.0229C178.014 33.8032 178.232 33.4935 178.34 33.1399C221.59 33.9999 257 68.3499 261.12 112C260.299 112.209 259.576 112.697 259.074 113.38C258.573 114.063 258.324 114.899 258.37 115.745C258.416 116.591 258.754 117.395 259.327 118.02C259.899 118.644 260.671 119.051 261.51 119.17C261.51 119.61 261.51 120.06 261.51 120.51C261.51 167.85 224.76 206.51 179.1 207.85C179.012 207.288 178.715 206.78 178.268 206.427C177.822 206.074 177.259 205.903 176.691 205.947C176.124 205.991 175.594 206.247 175.208 206.665C174.822 207.083 174.607 207.631 174.607 208.2C174.607 208.769 174.822 209.317 175.208 209.735C175.594 210.152 176.124 210.409 176.691 210.453C177.259 210.497 177.822 210.326 178.268 209.973C178.715 209.62 179.012 209.112 179.1 208.55C201.095 207.927 221.962 198.673 237.19 182.79C253.364 166.106 262.357 143.747 262.24 120.51C262.24 120.07 262.24 119.64 262.24 119.2C263.178 119.151 264.062 118.745 264.709 118.064C265.357 117.383 265.718 116.479 265.72 115.54Z" fill="url(#paint10_radial_1229_45)"/>
<path d="M248.26 154.13C249.226 154.13 250.01 153.346 250.01 152.38C250.01 151.413 249.226 150.63 248.26 150.63C247.293 150.63 246.51 151.413 246.51 152.38C246.51 153.346 247.293 154.13 248.26 154.13Z" fill="url(#paint11_radial_1229_45)"/>
<path d="M239.88 95.8203C240.846 95.8203 241.63 95.0368 241.63 94.0703C241.63 93.1038 240.846 92.3203 239.88 92.3203C238.913 92.3203 238.13 93.1038 238.13 94.0703C238.13 95.0368 238.913 95.8203 239.88 95.8203Z" fill="url(#paint12_radial_1229_45)"/>
<path d="M259.08 67.19C261.007 67.19 262.57 65.6274 262.57 63.7C262.57 61.7725 261.007 60.21 259.08 60.21C257.152 60.21 255.59 61.7725 255.59 63.7C255.59 65.6274 257.152 67.19 259.08 67.19Z" fill="url(#paint13_radial_1229_45)"/>
</g>
</g>
<defs>
<linearGradient id="paint0_linear_1229_45" x1="171.31" y1="198.66" x2="171.31" y2="2.54999" gradientUnits="userSpaceOnUse">
<stop stop-color="white"/>
<stop offset="0.5" stop-color="#7EE945"/>
<stop offset="1" stop-color="#06CAB4"/>
</linearGradient>
<linearGradient id="paint1_linear_1229_45" x1="89.7299" y1="201.12" x2="89.7299" y2="-65.8997" gradientUnits="userSpaceOnUse">
<stop stop-color="white"/>
<stop offset="0.5" stop-color="#7EE945"/>
<stop offset="1" stop-color="#06CAB4"/>
</linearGradient>
<linearGradient id="paint2_linear_1229_45" x1="253.57" y1="201.12" x2="253.57" y2="-65.8997" gradientUnits="userSpaceOnUse">
<stop stop-color="white"/>
<stop offset="0.5" stop-color="#7EE945"/>
<stop offset="1" stop-color="#06CAB4"/>
</linearGradient>
<linearGradient id="paint3_linear_1229_45" x1="66.5399" y1="198.66" x2="66.5399" y2="-101.19" gradientUnits="userSpaceOnUse">
<stop stop-color="white"/>
<stop offset="0.5" stop-color="#7EE945"/>
<stop offset="1" stop-color="#06CAB4"/>
</linearGradient>
<linearGradient id="paint4_linear_1229_45" x1="275.12" y1="198.66" x2="275.12" y2="-101.19" gradientUnits="userSpaceOnUse">
<stop stop-color="white"/>
<stop offset="0.5" stop-color="#7EE945"/>
<stop offset="1" stop-color="#06CAB4"/>
</linearGradient>
<radialGradient id="paint5_radial_1229_45" cx="0" cy="0" r="1" gradientUnits="userSpaceOnUse" gradientTransform="translate(137.28 83.2301) scale(232.29 232.29)">
<stop stop-color="white" stop-opacity="0"/>
<stop offset="1" stop-color="white" stop-opacity="0.5"/>
</radialGradient>
<radialGradient id="paint6_radial_1229_45" cx="0" cy="0" r="1" gradientUnits="userSpaceOnUse" gradientTransform="translate(136.89 83.2299) scale(232.29 232.29)">
<stop stop-color="white" stop-opacity="0"/>
<stop offset="1" stop-color="white" stop-opacity="0.5"/>
</radialGradient>
<radialGradient id="paint7_radial_1229_45" cx="0" cy="0" r="1" gradientUnits="userSpaceOnUse" gradientTransform="translate(136.89 83.2304) scale(232.29)">
<stop stop-color="white" stop-opacity="0"/>
<stop offset="1" stop-color="white" stop-opacity="0.5"/>
</radialGradient>
<radialGradient id="paint8_radial_1229_45" cx="0" cy="0" r="1" gradientUnits="userSpaceOnUse" gradientTransform="translate(136.89 83.2305) scale(232.29 232.29)">
<stop stop-color="white" stop-opacity="0"/>
<stop offset="1" stop-color="white" stop-opacity="0.5"/>
</radialGradient>
<radialGradient id="paint9_radial_1229_45" cx="0" cy="0" r="1" gradientUnits="userSpaceOnUse" gradientTransform="translate(137.28 83.2301) scale(232.29 232.29)">
<stop stop-color="white" stop-opacity="0"/>
<stop offset="1" stop-color="white" stop-opacity="0.5"/>
</radialGradient>
<radialGradient id="paint10_radial_1229_45" cx="0" cy="0" r="1" gradientUnits="userSpaceOnUse" gradientTransform="translate(137.28 83.2299) scale(232.29 232.29)">
<stop stop-color="white" stop-opacity="0"/>
<stop offset="1" stop-color="white" stop-opacity="0.5"/>
</radialGradient>
<radialGradient id="paint11_radial_1229_45" cx="0" cy="0" r="1" gradientUnits="userSpaceOnUse" gradientTransform="translate(136.89 83.2299) scale(232.29)">
<stop stop-color="white" stop-opacity="0"/>
<stop offset="1" stop-color="white" stop-opacity="0.5"/>
</radialGradient>
<radialGradient id="paint12_radial_1229_45" cx="0" cy="0" r="1" gradientUnits="userSpaceOnUse" gradientTransform="translate(136.89 83.2303) scale(232.29)">
<stop stop-color="white" stop-opacity="0"/>
<stop offset="1" stop-color="white" stop-opacity="0.5"/>
</radialGradient>
<radialGradient id="paint13_radial_1229_45" cx="0" cy="0" r="1" gradientUnits="userSpaceOnUse" gradientTransform="translate(136.89 83.23) scale(232.29 232.29)">
<stop stop-color="white" stop-opacity="0"/>
<stop offset="1" stop-color="white" stop-opacity="0.5"/>
</radialGradient>
<clipPath id="clip0_1229_45">
<rect width="342.61" height="178.45" fill="white"/>
</clipPath>
</defs>
</svg>

<svg xmlns="http://www.w3.org/2000/svg" xmlns:xlink="http://www.w3.org/1999/xlink" viewBox="0 0 343.08 225"><defs><style>.cls-1{fill:none;}.cls-2{fill:url(#linear-gradient);}.cls-3{clip-path:url(#clip-path);}.cls-4{fill:url(#linear-gradient-2);}.cls-5{fill:url(#linear-gradient-3);}.cls-6{fill:url(#linear-gradient-4);}.cls-7{fill:url(#linear-gradient-5);}.cls-8{fill:url(#radial-gradient);}</style><linearGradient id="linear-gradient" x1="171.7" y1="198.66" x2="171.7" y2="2.55" gradientUnits="userSpaceOnUse"><stop offset="0" stop-color="#fff"/><stop offset="0.5" stop-color="#7ee945"/><stop offset="1" stop-color="#06cab4"/></linearGradient><clipPath id="clip-path" transform="translate(0.39)"><path class="cls-1" d="M35.68,0H306.93a35.68,35.68,0,0,1,35.68,35.68V195.93a.52.52,0,0,1-.52.52H.52a.52.52,0,0,1-.52-.52V35.68A35.68,35.68,0,0,1,35.68,0Z"/></clipPath><linearGradient id="linear-gradient-2" x1="89.73" y1="201.12" x2="89.73" y2="-65.9" xlink:href="#linear-gradient"/><linearGradient id="linear-gradient-3" x1="253.57" y1="201.12" x2="253.57" y2="-65.9" xlink:href="#linear-gradient"/><linearGradient id="linear-gradient-4" x1="66.54" y1="198.66" x2="66.54" y2="-101.19" xlink:href="#linear-gradient"/><linearGradient id="linear-gradient-5" x1="275.12" y1="198.66" x2="275.12" y2="-101.19" xlink:href="#linear-gradient"/><radialGradient id="radial-gradient" cx="137.28" cy="83.23" r="232.29" gradientUnits="userSpaceOnUse"><stop offset="0" stop-color="#fff" stop-opacity="0"/><stop offset="1" stop-color="#fff" stop-opacity="0.5"/></radialGradient></defs><g id="Layer_2" data-name="Layer 2"><g id="Layer_1-2" data-name="Layer 1"><rect class="cls-2" x="0.39" width="342.61" height="196.45"/><g class="cls-3"><path class="cls-4" d="M179.85,180.23a38.54,38.54,0,0,1-3.43,16H-.39V38.57a56.76,56.76,0,0,1,16.15-2.33c32.09,0,58.1,26.69,58.1,59.63,0,1,0,1.92-.07,2.88a46.19,46.19,0,0,1,8.85-.85c25.54,0,46.4,20.51,47.82,46.35a36.19,36.19,0,0,1,12.26-2.13C163.23,142.12,179.85,159.18,179.85,180.23Z" transform="translate(0.39)"/><path class="cls-5" d="M342.69,58V195.83H175.22a38.86,38.86,0,0,1-10.76-27.05c0-21,16.28-38.11,36.36-38.11a34.77,34.77,0,0,1,14.22,3c1.25-26,21.75-46.66,46.86-46.66A45,45,0,0,1,282.41,92c9-20.43,28.77-34.6,51.67-34.6A55.57,55.57,0,0,1,342.69,58Z" transform="translate(0.39)"/><path class="cls-6" d="M133.47,185a27.32,27.32,0,0,1-2.55,11.57H-.39V82.52A43.18,43.18,0,0,1,54.75,124c0,.7,0,1.39,0,2.08A35.59,35.59,0,0,1,96.79,159a27.59,27.59,0,0,1,36.68,26Z" transform="translate(0.39)"/><path class="cls-7" d="M342.69,96.89v99.7h-127a27.58,27.58,0,0,1,30.19-45A35.59,35.59,0,0,1,297,121.44a43.15,43.15,0,0,1,39.17-25A43.93,43.93,0,0,1,342.69,96.89Z" transform="translate(0.39)"/><path class="cls-8" d="M226.79,64.39a79.26,79.26,0,0,0-112.08,0,80.23,80.23,0,0,0-9.35,11.24,3.49,3.49,0,0,0-3.7,5.9A79.31,79.31,0,0,0,209.5,189.6a3.66,3.66,0,0,0,6.2-3.87,80.32,80.32,0,0,0,11.09-9.26,79.23,79.23,0,0,0,0-112.08ZM215.28,185.11a3.66,3.66,0,0,0-6.47,2.36,3.48,3.48,0,0,0,.32,1.48,78.52,78.52,0,0,1-106.81-107,3.57,3.57,0,0,0,1.4.29A3.48,3.48,0,0,0,106,76.05,78.53,78.53,0,1,1,215.28,185.11Z" transform="translate(0.39)"/><circle class="cls-8" cx="88.23" cy="47.11" r="2.44"/><circle class="cls-8" cx="62.39" cy="95.82" r="1.92"/><circle class="cls-8" cx="98.7" cy="170.36" r="1.92"/><path class="cls-8" d="M169.88,213.82a2.27,2.27,0,0,0-2.25,2,97.94,97.94,0,0,1-95.27-96.3,2.44,2.44,0,0,0,0-4.81A97.82,97.82,0,0,1,232.32,42.5a2.23,2.23,0,0,0-.3,1.12,2.28,2.28,0,1,0,.74-1.67A98.52,98.52,0,0,0,71.7,114.68a2.44,2.44,0,0,0,0,4.86,98.51,98.51,0,0,0,96,97,2.27,2.27,0,1,0,2.23-2.7Z" transform="translate(0.39)"/><path class="cls-8" d="M265.72,115.54a3.67,3.67,0,0,0-3.67-3.66h-.23a88.5,88.5,0,0,0-24.65-53.66,83.73,83.73,0,0,0-58.75-25.78,1.74,1.74,0,1,0-1.73,1.92,1.72,1.72,0,0,0,1.65-1.22C221.59,34,257,68.35,261.12,112a3.66,3.66,0,0,0,.39,7.17c0,.44,0,.89,0,1.34,0,47.34-36.75,86-82.41,87.34a2.26,2.26,0,1,0,0,.7,83.76,83.76,0,0,0,58.09-25.76,88.83,88.83,0,0,0,25.05-62.28c0-.44,0-.87,0-1.31A3.67,3.67,0,0,0,265.72,115.54Z" transform="translate(0.39)"/><circle class="cls-8" cx="248.65" cy="152.38" r="1.75"/><circle class="cls-8" cx="141.12" cy="223.25" r="1.75"/><circle class="cls-8" cx="240.27" cy="94.07" r="1.75"/><circle class="cls-8" cx="259.47" cy="63.7" r="3.49"/></g></g></g></svg>
